svg/slack-old.svg

<svg width="32" height="32" fill="none" xmlns="http://www.w3.org/2000/svg"><path fill-rule="evenodd" clip-rule="evenodd" d="M16 6c5.1 0 7.247.576 8.336 1.665C25.425 8.754 26 10.9 26 16c0 5.1-.575 7.247-1.664 8.336C23.247 25.425 21.1 26 16 26s-7.247-.575-8.336-1.664C6.575 23.247 6 21.1 6 16s.575-7.247 1.664-8.335C8.753 6.576 10.9 6 16 6zm12 10C28 6 26 4 16 4S4 6 4 16s2 12 12 12 12-2 12-12z" fill="#000"/><path fill-rule="evenodd" clip-rule="evenodd" d="M14.287 10.941a1 1 0 0 1 1.932.518l-.406 1.517h2.052l.545-2.035a1 1 0 0 1 1.932.518l-.407 1.517h1.085a1 1 0 1 1 0 2H19.4l-.536 2h1.156a1 1 0 1 1 0 2h-1.692l-.574 2.142a1 1 0 0 1-1.932-.517l.435-1.625h-2.052l-.574 2.142a1 1 0 1 1-1.932-.517l.436-1.625H11.02a1 1 0 0 1 0-2h1.651l.535-2H12.02a1 1 0 0 1 0-2h1.722l.545-2.035zm2.506 6.035l.536-2h-2.052l-.536 2h2.052z" fill="#000"/></svg>

<svg width="32" height="32" viewBox="0 0 32 32" fill="none" xmlns="http://www.w3.org/2000/svg">
<path fill-rule="evenodd" clip-rule="evenodd" d="M16 6C21.1 6 23.247 6.576 24.336 7.665C25.425 8.754 26 10.9 26 16C26 21.1 25.425 23.247 24.336 24.336C23.247 25.425 21.1 26 16 26C10.9 26 8.753 25.425 7.664 24.336C6.575 23.247 6 21.1 6 16C6 10.9 6.575 8.753 7.664 7.665C8.753 6.576 10.9 6 16 6ZM28 16C28 6 26 4 16 4C6 4 4 6 4 16C4 26 6 28 16 28C26 28 28 26 28 16Z" fill="black"/>
<path fill-rule="evenodd" clip-rule="evenodd" d="M14.287 10.941C14.43 10.408 14.979 10.091 15.512 10.234C16.046 10.377 16.362 10.926 16.219 11.459L15.813 12.976H17.865L18.41 10.941C18.553 10.408 19.101 10.091 19.635 10.234C20.168 10.377 20.485 10.926 20.342 11.459L19.935 12.976H21.02C21.573 12.976 22.02 13.423 22.02 13.976C22.02 14.528 21.573 14.976 21.02 14.976H19.4L18.864 16.976H20.02C20.573 16.976 21.02 17.423 21.02 17.976C21.02 18.528 20.573 18.976 20.02 18.976H18.328L17.754 21.118C17.611 21.652 17.062 21.968 16.529 21.825C15.995 21.682 15.679 21.134 15.822 20.601L16.257 18.976H14.205L13.631 21.118C13.488 21.652 12.94 21.968 12.406 21.825C11.873 21.682 11.556 21.134 11.699 20.601L12.135 18.976H11.02C10.468 18.976 10.02 18.528 10.02 17.976C10.02 17.423 10.468 16.976 11.02 16.976H12.671L13.206 14.976H12.02C11.468 14.976 11.02 14.528 11.02 13.976C11.02 13.423 11.468 12.976 12.02 12.976H13.742L14.287 10.941V10.941ZM16.793 16.976L17.329 14.976H15.277L14.741 16.976H16.793V16.976Z" fill="black"/>
</svg>
